Sources/FrostedUI/Resources/Icons.xcassets/chat32.imageset/chat-32.svg

<svg width="32" height="32" viewBox="0 0 32 32" fill="none" xmlns="http://www.w3.org/2000/svg" data-fui-icon="true">
  <path
    fill-rule="evenodd"
    clip-rule="evenodd"
    d="M16.3422 2.75391C23.5016 2.93559 29.2494 8.79676 29.2494 16C29.2494 23.2032 23.5016 29.0644 16.3422 29.2461L15.9994 29.25C14.9497 29.2499 13.9278 29.1274 12.9476 28.8955C11.3338 28.5136 9.83297 28.2457 8.43299 28.6123C7.57097 28.8381 6.74058 29.0875 5.98377 29.333C4.97667 29.6595 3.98802 29.2803 3.35389 28.6465C2.7197 28.0126 2.34063 27.024 2.66737 26.0166C2.91312 25.259 3.16218 24.4276 3.38807 23.5645C3.75424 22.1649 3.48675 20.6649 3.10487 19.0518C2.87286 18.0716 2.7494 17.0499 2.7494 16C2.7494 8.68245 8.68201 2.75041 15.9994 2.75L16.3422 2.75391ZM15.9994 4.25C9.51037 4.25041 4.2494 9.51094 4.2494 16C4.2494 16.9324 4.35927 17.8387 4.56483 18.707C4.94461 20.3113 5.30996 22.1454 4.83924 23.9443C4.60481 24.8401 4.34715 25.6995 4.09413 26.4795C3.97536 26.8457 4.09493 27.2654 4.41444 27.585C4.73414 27.9045 5.1544 28.0241 5.52088 27.9053C6.29999 27.6525 7.15845 27.3955 8.05311 27.1611C9.85263 26.6899 11.6876 27.0559 13.2924 27.4355C14.1606 27.641 15.067 27.7499 15.9994 27.75C22.4887 27.7499 27.7494 22.4893 27.7494 16C27.7494 9.61213 22.6522 4.41488 16.3031 4.25391L15.9994 4.25ZM10.5004 14.5C11.3286 14.5002 12.0004 15.1717 12.0004 16C12.0004 16.8283 11.3286 17.4998 10.5004 17.5C9.67195 17.5 9.00038 16.8284 9.00038 16C9.00038 15.1716 9.67195 14.5 10.5004 14.5ZM16.2504 14.5C17.0786 14.5002 17.7504 15.1717 17.7504 16C17.7504 16.8283 17.0786 17.4998 16.2504 17.5C15.4219 17.5 14.7504 16.8284 14.7504 16C14.7504 15.1716 15.4219 14.5 16.2504 14.5ZM22.0004 14.5C22.8286 14.5002 23.5004 15.1717 23.5004 16C23.5004 16.8283 22.8286 17.4998 22.0004 17.5C21.1719 17.5 20.5004 16.8284 20.5004 16C20.5004 15.1716 21.1719 14.5 22.0004 14.5Z"
    fill="currentColor"
  />
</svg>

<svg xmlns="http://www.w3.org/2000/svg" width="32" height="32" fill="none" data-fui-icon="true" viewBox="0 0 32 32"><path fill="currentColor" fill-rule="evenodd" d="M16.342 2.754C23.502 2.936 29.25 8.797 29.25 16s-5.747 13.064-12.907 13.246L16 29.25c-1.05 0-2.071-.123-3.051-.355-1.614-.381-3.115-.65-4.515-.283-.862.226-1.692.476-2.45.721-1.006.327-1.995-.053-2.63-.686-.633-.634-1.012-1.623-.686-2.63a45 45 0 0 0 .721-2.453c.366-1.4.099-2.9-.283-4.512A13.2 13.2 0 0 1 2.749 16C2.75 8.682 8.682 2.75 16 2.75zM16 4.25C9.51 4.25 4.25 9.51 4.25 16c0 .932.11 1.839.316 2.707.38 1.604.745 3.438.274 5.237a46 46 0 0 1-.745 2.536c-.119.366 0 .785.32 1.105s.74.44 1.107.32c.779-.253 1.637-.51 2.532-.744 1.8-.471 3.635-.105 5.24.274.868.206 1.774.315 2.706.315 6.49 0 11.75-5.26 11.75-11.75 0-6.388-5.097-11.585-11.446-11.746zM10.5 14.5a1.5 1.5 0 1 1 0 3 1.5 1.5 0 0 1 0-3m5.75 0a1.5 1.5 0 1 1 0 3 1.5 1.5 0 0 1 0-3m5.75 0a1.5 1.5 0 1 1 0 3 1.5 1.5 0 0 1 0-3" clip-rule="evenodd"/></svg>
